public/svg/icon/ppp.svg

<svg xmlns="http://www.w3.org/2000/svg" xmlns:xlink="http://www.w3.org/1999/xlink" width="32" height="32" viewBox="0 0 32 32"><defs><linearGradient id="ppp-c" x1="50%" x2="50%" y1="0%" y2="100%"><stop offset="0%" stop-color="#FFF" stop-opacity=".5"/><stop offset="100%" stop-opacity=".5"/></linearGradient><circle id="ppp-b" cx="16" cy="15" r="15"/><filter id="ppp-a" width="111.7%" height="111.7%" x="-5.8%" y="-4.2%" filterUnits="objectBoundingBox"><feOffset dy=".5" in="SourceAlpha" result="shadowOffsetOuter1"/><feGaussianBlur in="shadowOffsetOuter1" result="shadowBlurOuter1" stdDeviation=".5"/><feComposite in="shadowBlurOuter1" in2="SourceAlpha" operator="out" result="shadowBlurOuter1"/><feColorMatrix in="shadowBlurOuter1" values="0 0 0 0 0 0 0 0 0 0 0 0 0 0 0 0 0 0 0.199473505 0"/></filter><path id="ppp-e" d="M23.3119189,6.04394911 C23.8087794,6.55429591 23.8087794,7.38011581 23.3119189,7.89046261 L20.1824418,11.0985357 C20.0824745,11.2003188 19.9668765,11.2846149 19.8402546,11.3480646 C19.3674978,11.6145528 18.7796267,11.5287389 18.3984069,11.1375924 L15.2795239,7.94362311 L9.27482656,14.1026461 L10.7251495,15.5857154 C11.1575025,16.0362184 11.1544426,16.7594074 10.7182937,17.2060566 C10.2821447,17.6527057 9.57595694,17.6558393 9.13604474,17.2130775 L6.82972399,14.858827 C6.390092,14.4080935 6.390092,13.6778588 6.82972399,13.2271253 C6.835021,13.2217008 6.84031802,13.2173611 6.84561503,13.2119366 C6.85082039,13.2071487 6.85577138,13.2020786 6.86044668,13.1967479 L14.4839121,5.37781556 L14.4849715,5.37673066 L14.4860309,5.37564575 L14.5114565,5.34960795 C14.9150892,4.93517308 15.5443747,4.88960694 15.9988586,5.21073972 C16.0712302,5.25854304 16.1383603,5.3141947 16.1990858,5.37673066 L19.1834246,8.42966191 L21.509874,6.04394911 C22.007812,5.53513235 22.813981,5.53513235 23.3119189,6.04394911 Z M25.1701121,15.1463277 C25.3811142,15.3616924 25.499801,15.654162 25.4999998,15.9592412 C25.5001985,16.2643205 25.3818929,16.556952 25.1711715,16.7726048 C25.1658745,16.7780294 25.1605775,16.782369 25.1552804,16.7877935 C25.1500751,16.7925814 25.1451241,16.7976516 25.1404488,16.8029823 L17.4862607,24.6501222 C17.0303703,25.1166259 16.2916009,25.1166259 15.8357105,24.6501222 C15.7982981,24.6122255 15.763601,24.5716171 15.731889,24.5286125 L12.815352,21.5451154 L10.5016155,23.9232338 C10.1801815,24.2552807 9.70983882,24.38584 9.26865979,24.2654819 C8.82748076,24.1451238 8.482897,23.7922443 8.36536836,23.340444 C8.24783973,22.8886437 8.37532978,22.4069776 8.69957062,22.0778052 L11.8290477,18.8697321 C12.0070107,18.683692 12.2361475,18.5576605 12.4858776,18.5084577 C12.8902263,18.4170787 13.3121422,18.5435093 13.6046074,18.8436943 L16.7309062,22.0420032 L22.7250095,15.8981689 L21.2746865,14.4150996 C20.8423335,13.9645967 20.8453934,13.2414076 21.2815424,12.7947585 C21.7176914,12.3481093 22.4238791,12.3449758 22.8637913,12.7877376 L25.1372706,15.1126955 L25.1393894,15.1148653 L25.1415082,15.1170351 L25.1701121,15.1463277 Z"/><filter id="ppp-d" width="118.4%" height="117.5%" x="-9.2%" y="-6.2%" filterUnits="objectBoundingBox"><feOffset dy=".5" in="SourceAlpha" result="shadowOffsetOuter1"/><feGaussianBlur in="shadowOffsetOuter1" result="shadowBlurOuter1" stdDeviation=".5"/><feColorMatrix in="shadowBlurOuter1" values="0 0 0 0 0 0 0 0 0 0 0 0 0 0 0 0 0 0 0.204257246 0"/></filter></defs><g fill="none" fill-rule="evenodd"><use fill="#000" filter="url(#ppp-a)" xlink:href="#ppp-b"/><use fill="#348F8D" xlink:href="#ppp-b"/><use fill="url(#ppp-c)" style="mix-blend-mode:soft-light" xlink:href="#ppp-b"/><circle cx="16" cy="15" r="14.5" stroke="#000" stroke-opacity=".097"/><g fill-rule="nonzero"><use fill="#000" filter="url(#ppp-d)" xlink:href="#ppp-e"/><use fill="#FFF" fill-rule="evenodd" xlink:href="#ppp-e"/></g></g></svg>

<svg xmlns="http://www.w3.org/2000/svg" xmlns:xlink="http://www.w3.org/1999/xlink" width="32" height="32" viewBox="0 0 32 32"><defs><filter id="a" width="111.7%" height="111.7%" x="-5.8%" y="-4.2%" filterUnits="objectBoundingBox"><feOffset dy=".5" in="SourceAlpha" result="shadowOffsetOuter1"/><feGaussianBlur in="shadowOffsetOuter1" result="shadowBlurOuter1" stdDeviation=".5"/><feComposite in="shadowBlurOuter1" in2="SourceAlpha" operator="out" result="shadowBlurOuter1"/><feColorMatrix in="shadowBlurOuter1" values="0 0 0 0 0 0 0 0 0 0 0 0 0 0 0 0 0 0 0.199473505 0"/></filter><filter id="d" width="118.4%" height="117.5%" x="-9.2%" y="-6.2%" filterUnits="objectBoundingBox"><feOffset dy=".5" in="SourceAlpha" result="shadowOffsetOuter1"/><feGaussianBlur in="shadowOffsetOuter1" result="shadowBlurOuter1" stdDeviation=".5"/><feColorMatrix in="shadowBlurOuter1" values="0 0 0 0 0 0 0 0 0 0 0 0 0 0 0 0 0 0 0.204257246 0"/></filter><linearGradient id="c" x1="50%" x2="50%" y1="0%" y2="100%"><stop offset="0%" stop-color="#FFF" stop-opacity=".5"/><stop offset="100%" stop-opacity=".5"/></linearGradient><circle id="b" cx="16" cy="15" r="15"/><path id="e" d="M23.312 6.044a1.33 1.33 0 010 1.846l-3.13 3.209a1.29 1.29 0 01-.342.25 1.19 1.19 0 01-1.442-.211L15.28 7.944l-6.005 6.159 1.45 1.483a1.17 1.17 0 01-.007 1.62 1.105 1.105 0 01-1.582.007L6.83 14.86a1.174 1.174 0 010-1.632l.016-.015a.198.198 0 00.014-.015l7.624-7.82h.001l.001-.001.025-.026A1.147 1.147 0 0116 5.21c.072.049.14.104.2.167l2.984 3.053 2.327-2.386a1.255 1.255 0 011.802 0zm1.858 9.102a1.165 1.165 0 01.001 1.627l-.016.015a.198.198 0 00-.015.015l-7.654 7.847a1.148 1.148 0 01-1.754-.121l-2.917-2.984-2.313 2.378a1.254 1.254 0 01-1.233.342 1.29 1.29 0 01-.904-.925c-.117-.451.01-.933.335-1.262l3.129-3.208c.178-.186.407-.312.657-.362.404-.09.826.036 1.119.336l3.126 3.198 5.994-6.144-1.45-1.483a1.17 1.17 0 01.007-1.62 1.105 1.105 0 011.582-.007l2.273 2.325.002.002.003.002.028.03z"/></defs><g fill="none" fill-rule="evenodd"><use fill="#000" filter="url(#a)" xlink:href="#b"/><use fill="#348F8D" xlink:href="#b"/><use fill="url(#c)" style="mix-blend-mode:soft-light" xlink:href="#b"/><circle cx="16" cy="15" r="14.5" stroke="#000" stroke-opacity=".097"/><g fill-rule="nonzero"><use fill="#000" filter="url(#d)" xlink:href="#e"/><use fill="#FFF" fill-rule="evenodd" xlink:href="#e"/></g></g></svg>
